icons/layout-spacious-32.svg

<svg xmlns="http://www.w3.org/2000/svg" viewBox="0 0 32 32"><path d="M30 31H2v-5h28v5zM3 30h26v-3H3v3zm27-11H2v-5h28v5zM3 18h26v-3H3v3zM30 7H2V2h28v5zM3 6h26V3H3v3z"/><path fill="none" d="M0 0h32v32H0z"/></svg>

<?xml version="1.0" encoding="UTF-8"?><svg id="icons" xmlns="http://www.w3.org/2000/svg" viewBox="0 0 32 32"><defs><style>.cls-1{fill:none;}</style></defs><path d="M30,31H2v-5H30v5Zm-27-1H29v-3H3v3Zm27-11H2v-5H30v5Zm-27-1H29v-3H3v3ZM30,7H2V2H30V7ZM3,6H29V3H3v3Z"/><rect class="cls-1" width="32" height="32"/></svg>
